X:5
T:Amoroso
C:
S:http://sca.uwaterloo.ca/~praetzel/Joy-J-book/Amoroso.htm
N:
D:
Z:<eric.forgeot@caramail.com> -- http://anamnese.fr.st
M:4/4
L:1/8
Q:1/4=130
K:C
DEFE D2 EF | GAGF E2 D2 | DEFE D2 AG | FD E2 D4 :|
|: A2 A2 G2 c2 | A2 A2 G2 AB | c2 ed cA B2 | A4 :|
|: dd cB/A/ A2 AB | c3 B/A/ G2 AB | c2 ed cA B2 A4 :|
|: A2 A2 G2 c2 | A2 A2 G2 G2 | A2 A2 GE F2 | E2 E2 E2 F2 |
FEFG AG/F/ E2 | E2E2 G/4G/4G/4G/4 F>G | A2 A2 A2 AG | F3 D F2 E2 | D4 :|
